X:6
T:Drowsy Maggie (reel)
I:titlefont Times-Roman 24
I:partsfont Times-Roman 20
R: reel
M:4/4
O:Trad. (9.4.2014/NS)
L: 1/8
K:Edor
|:"Em"E2BE dEBE|E2BE AFDF|E2BE dEBE|"D"BABc dAFD:|
%%vskip
"D"d2fd "A"c2ec|"D"defg afge|"D"d2fd "A"c2ec|"G"BABc dAFA|
"D"d2fd "A"c2ec|"D"defg afge|"D"a/g/fge "A/C#"fdec|"Bm"BABc "D"dAFD|
%%vskip
W:Drowsy Maggie
%%vskip
W:||: E2BE dEBE | E2BE AFDF | E2BE dEBE | BABc dAFD :|
%%vskip
W:d2fd c2ec | defg afge | d2fd c2ec | BABc dAFA |
W:d2fd c2ec | defg afge | a/g/fge fdec | BABc dAFD |
%%vskip
%%vskip
P:The Maid Behind The Bar
K:Dmaj
|:DE|"D"FAAB AFED|FAAB A2de|"Hm"fBBA Bcde|f2gf "A"edBA|
"D"FAAB AFED|FAAB A2de|"Hm"fBBA BcdB|"A"AFEF "D"D2 :|
de|"D"fgag fdde|fdad fdd2|"Em"efga beef|g/f/ebe "A"gee2|
"D"fgaf +slide+b2af|defd e2de|"Hm"fBBA BcdB|"A"AFEF "D"D2 :|
%%vskip
W:The Maid Behind The Bar
%%vskip
W:||: DE | FAAB AFED | FAAB A2de | fBBA Bcde | f2gf edBA |
W:FAAB AFED | FAAB A2de | fBBA BcdB | AFEF D2 :|
W:de| fgag fdde | fdad fdd2 | efga beef | g/f/ebe gee2 |
W:fgaf b2af | defd e2de | fBBA BcdB | AFEF D2 :|

